img/icons/leasing_icon.svg

<svg width="146" height="114" viewBox="0 0 146 114" fill="none" xmlns="http://www.w3.org/2000/svg">
<g filter="url(#filter0_bddi_1587_1498)">
<path d="M100.273 29.3398H116.636L133 51.4311V83.8056H121.9C121.252 88.3497 118.983 92.5075 115.511 95.5155C112.039 98.5234 107.597 100.179 103 100.179C98.4034 100.179 93.961 98.5234 90.489 95.5155C87.017 92.5075 84.7484 88.3497 84.1 83.8056H56.4455C55.797 88.3497 53.5284 92.5075 50.0564 95.5155C46.5844 98.5234 42.1421 100.179 37.5455 100.179C32.9488 100.179 28.5065 98.5234 25.0345 95.5155C21.5625 92.5075 19.2939 88.3497 18.6455 83.8056H13V18.4466C13 17.0021 13.5747 15.6167 14.5976 14.5953C15.6205 13.5738 17.0079 13 18.4545 13H94.8182C96.2648 13 97.6522 13.5738 98.6751 14.5953C99.6981 15.6167 100.273 17.0021 100.273 18.4466V29.3398ZM100.273 40.2329V56.5727H122.091V55.0204L111.138 40.2329H100.273Z" fill="#FBFBFB"/>
</g>
<path d="M100.273 29.3398H116.636L133 51.4311V83.8056H121.9C121.252 88.3497 118.983 92.5075 115.511 95.5155C112.039 98.5234 107.597 100.179 103 100.179C98.4034 100.179 93.961 98.5234 90.489 95.5155C87.017 92.5075 84.7484 88.3497 84.1 83.8056H56.4455C55.797 88.3497 53.5284 92.5075 50.0564 95.5155C46.5844 98.5234 42.1421 100.179 37.5455 100.179C32.9488 100.179 28.5065 98.5234 25.0345 95.5155C21.5625 92.5075 19.2939 88.3497 18.6455 83.8056H13V18.4466C13 17.0021 13.5747 15.6167 14.5976 14.5953C15.6205 13.5738 17.0079 13 18.4545 13H94.8182C96.2648 13 97.6522 13.5738 98.6751 14.5953C99.6981 15.6167 100.273 17.0021 100.273 18.4466V29.3398ZM100.273 40.2329V56.5727H122.091V55.0204L111.138 40.2329H100.273Z" fill="#FBFBFB"/>
<defs>
<filter id="filter0_bddi_1587_1498" x="0" y="0" width="146" height="113.179" filterUnits="userSpaceOnUse" color-interpolation-filters="sRGB">
<feFlood flood-opacity="0" result="BackgroundImageFix"/>
<feGaussianBlur in="BackgroundImage" stdDeviation="5"/>
<feComposite in2="SourceAlpha" operator="in" result="effect1_backgroundBlur_1587_1498"/>
<feColorMatrix in="SourceAlpha" type="matrix" values="0 0 0 0 0 0 0 0 0 0 0 0 0 0 0 0 0 0 127 0" result="hardAlpha"/>
<feOffset dx="3" dy="3"/>
<feGaussianBlur stdDeviation="5"/>
<feComposite in2="hardAlpha" operator="out"/>
<feColorMatrix type="matrix" values="0 0 0 0 0.611765 0 0 0 0 0.819608 0 0 0 0 0.713726 0 0 0 0.9 0"/>
<feBlend mode="normal" in2="effect1_backgroundBlur_1587_1498" result="effect2_dropShadow_1587_1498"/>
<feColorMatrix in="SourceAlpha" type="matrix" values="0 0 0 0 0 0 0 0 0 0 0 0 0 0 0 0 0 0 127 0" result="hardAlpha"/>
<feOffset dx="-3" dy="-3"/>
<feGaussianBlur stdDeviation="5"/>
<feComposite in2="hardAlpha" operator="out"/>
<feColorMatrix type="matrix" values="0 0 0 0 1 0 0 0 0 1 0 0 0 0 1 0 0 0 1 0"/>
<feBlend mode="normal" in2="effect2_dropShadow_1587_1498" result="effect3_dropShadow_1587_1498"/>
<feBlend mode="normal" in="SourceGraphic" in2="effect3_dropShadow_1587_1498" result="shape"/>
<feColorMatrix in="SourceAlpha" type="matrix" values="0 0 0 0 0 0 0 0 0 0 0 0 0 0 0 0 0 0 127 0" result="hardAlpha"/>
<feOffset dx="-3" dy="-3"/>
<feGaussianBlur stdDeviation="5"/>
<feComposite in2="hardAlpha" operator="arithmetic" k2="-1" k3="1"/>
<feColorMatrix type="matrix" values="0 0 0 0 0.611765 0 0 0 0 0.819608 0 0 0 0 0.713726 0 0 0 0.4 0"/>
<feBlend mode="normal" in2="shape" result="effect4_innerShadow_1587_1498"/>
</filter>
</defs>
</svg>

<svg width="146" height="114" fill="none" xmlns="http://www.w3.org/2000/svg"><g filter="url(#filter0_bddi_1587_1498)"><path d="M100.273 29.34h16.363L133 51.43v32.375h-11.1a19.053 19.053 0 01-6.389 11.71A19.106 19.106 0 01103 100.178a19.107 19.107 0 01-12.511-4.663 19.055 19.055 0 01-6.389-11.71H56.446a19.056 19.056 0 01-6.39 11.71 19.107 19.107 0 01-12.51 4.663 19.107 19.107 0 01-12.511-4.663 19.055 19.055 0 01-6.39-11.71H13v-65.36c0-1.444.575-2.83 1.598-3.85A5.458 5.458 0 0118.454 13h76.364a5.46 5.46 0 013.857 1.595 5.442 5.442 0 011.598 3.852V29.34zm0 10.893v16.34h21.818V55.02l-10.953-14.787h-10.865z" fill="#FBFBFB"/></g><path d="M100.273 29.34h16.363L133 51.43v32.375h-11.1a19.053 19.053 0 01-6.389 11.71A19.106 19.106 0 01103 100.178a19.107 19.107 0 01-12.511-4.663 19.055 19.055 0 01-6.389-11.71H56.446a19.056 19.056 0 01-6.39 11.71 19.107 19.107 0 01-12.51 4.663 19.107 19.107 0 01-12.511-4.663 19.055 19.055 0 01-6.39-11.71H13v-65.36c0-1.444.575-2.83 1.598-3.85A5.458 5.458 0 0118.454 13h76.364a5.46 5.46 0 013.857 1.595 5.442 5.442 0 011.598 3.852V29.34zm0 10.893v16.34h21.818V55.02l-10.953-14.787h-10.865z" fill="#FBFBFB"/><defs><filter id="filter0_bddi_1587_1498" x="0" y="0" width="146" height="113.179" filterUnits="userSpaceOnUse" color-interpolation-filters="sRGB"><feFlood flood-opacity="0" result="BackgroundImageFix"/><feGaussianBlur in="BackgroundImage" stdDeviation="5"/><feComposite in2="SourceAlpha" operator="in" result="effect1_backgroundBlur_1587_1498"/><feColorMatrix in="SourceAlpha" values="0 0 0 0 0 0 0 0 0 0 0 0 0 0 0 0 0 0 127 0" result="hardAlpha"/><feOffset dx="3" dy="3"/><feGaussianBlur stdDeviation="5"/><feComposite in2="hardAlpha" operator="out"/><feColorMatrix values="0 0 0 0 0.611765 0 0 0 0 0.819608 0 0 0 0 0.713726 0 0 0 0.9 0"/><feBlend in2="effect1_backgroundBlur_1587_1498" result="effect2_dropShadow_1587_1498"/><feColorMatrix in="SourceAlpha" values="0 0 0 0 0 0 0 0 0 0 0 0 0 0 0 0 0 0 127 0" result="hardAlpha"/><feOffset dx="-3" dy="-3"/><feGaussianBlur stdDeviation="5"/><feComposite in2="hardAlpha" operator="out"/><feColorMatrix values="0 0 0 0 1 0 0 0 0 1 0 0 0 0 1 0 0 0 1 0"/><feBlend in2="effect2_dropShadow_1587_1498" result="effect3_dropShadow_1587_1498"/><feBlend in="SourceGraphic" in2="effect3_dropShadow_1587_1498" result="shape"/><feColorMatrix in="SourceAlpha" values="0 0 0 0 0 0 0 0 0 0 0 0 0 0 0 0 0 0 127 0" result="hardAlpha"/><feOffset dx="-3" dy="-3"/><feGaussianBlur stdDeviation="5"/><feComposite in2="hardAlpha" operator="arithmetic" k2="-1" k3="1"/><feColorMatrix values="0 0 0 0 0.611765 0 0 0 0 0.819608 0 0 0 0 0.713726 0 0 0 0.4 0"/><feBlend in2="shape" result="effect4_innerShadow_1587_1498"/></filter></defs></svg>
